Simply-Blue-Circles/scalable/apps/gnome-panel-window-list.svg

<svg xmlns="http://www.w3.org/2000/svg" width="48" height="48" viewBox="0 0 12.7 12.7"><path fill="#2c89a0" d="M6.344.073a6.29 6.29 0 0 0-6.29 6.29 6.29 6.29 0 0 0 6.29 6.288 6.29 6.29 0 0 0 6.29-6.289 6.29 6.29 0 0 0-6.29-6.29zm-.018.936a5.407 5.407 0 0 1 4.109 1.901H2.212a5.407 5.407 0 0 1 4.114-1.9zM1.608 3.78h1.086a.22.22 0 0 1 .088.019.336.336 0 0 1 .157.17.52.52 0 0 1 .04.197v4.392a.52.52 0 0 1-.04.198.481.481 0 0 1-.041.071.319.319 0 0 1-.116.099c-.027.008-.058.018-.088.018H1.55a5.407 5.407 0 0 1-.307-.698V4.592a5.407 5.407 0 0 1 .365-.812zm2.06.002c.011-.002.021 0 .034 0h7.338a5.407 5.407 0 0 1 .693 2.635 5.407 5.407 0 0 1-.63 2.528H3.701a.224.224 0 0 1-.089-.017.327.327 0 0 1-.156-.17.52.52 0 0 1-.041-.197V4.167a.52.52 0 0 1 .04-.197.326.326 0 0 1 .157-.17.29.29 0 0 1 .054-.019zm.598.485a.297.297 0 0 0-.297.298v3.572c0 .165.133.298.297.298h4.168a.297.297 0 0 0 .297-.298V4.564a.297.297 0 0 0-.297-.298H4.266zm-3.025.332v3.64a5.407 5.407 0 0 1-.322-1.822 5.407 5.407 0 0 1 .322-1.818zm3.025.636h4.168c.04 0 .074.033.074.074v2.828a.074.074 0 0 1-.074.074H4.266a.074.074 0 0 1-.074-.074V5.308c0-.04.033-.074.074-.074zM2.103 9.79h8.441a5.407 5.407 0 0 1-4.218 2.032A5.407 5.407 0 0 1 2.103 9.79z"/></svg>

<?xml version="1.0" encoding="UTF-8" standalone="no"?>
<svg
   xmlns:dc="http://purl.org/dc/elements/1.1/"
   xmlns:cc="http://creativecommons.org/ns#"
   xmlns:rdf="http://www.w3.org/1999/02/22-rdf-syntax-ns#"
   xmlns:svg="http://www.w3.org/2000/svg"
   xmlns="http://www.w3.org/2000/svg"
   xmlns:sodipodi="http://sodipodi.sourceforge.net/DTD/sodipodi-0.dtd"
   xmlns:inkscape="http://www.inkscape.org/namespaces/inkscape"
   width="48"
   height="48"
   viewBox="0 0 12.7 12.7"
   version="1.1"
   id="svg4"
   sodipodi:docname="gnome-panel-window-list.svg"
   inkscape:version="0.92.4 (5da689c313, 2019-01-14)">
  <metadata
     id="metadata10">
    <rdf:RDF>
      <cc:Work
         rdf:about="">
        <dc:format>image/svg+xml</dc:format>
        <dc:type
           rdf:resource="http://purl.org/dc/dcmitype/StillImage" />
        <dc:title></dc:title>
      </cc:Work>
    </rdf:RDF>
  </metadata>
  <defs
     id="defs8" />
  <sodipodi:namedview
     pagecolor="#ffffff"
     bordercolor="#666666"
     borderopacity="1"
     objecttolerance="10"
     gridtolerance="10"
     guidetolerance="10"
     inkscape:pageopacity="0"
     inkscape:pageshadow="2"
     inkscape:window-width="1087"
     inkscape:window-height="480"
     id="namedview6"
     showgrid="false"
     inkscape:zoom="4.9166667"
     inkscape:cx="2.1355932"
     inkscape:cy="24"
     inkscape:window-x="0"
     inkscape:window-y="25"
     inkscape:window-maximized="0"
     inkscape:current-layer="svg4" />
  <path
     d="m 6.344,0.073 a 6.29,6.29 0 0 0 -6.29,6.29 6.29,6.29 0 0 0 6.29,6.288 6.29,6.29 0 0 0 6.29,-6.289 6.29,6.29 0 0 0 -6.29,-6.29 z M 6.326,1.009 A 5.407,5.407 0 0 1 10.435,2.91 H 2.212 A 5.407,5.407 0 0 1 6.326,1.01 Z M 1.608,3.78 h 1.086 c 0.03,0 0.061,0.007 0.088,0.019 a 0.336,0.336 0 0 1 0.157,0.17 0.52,0.52 0 0 1 0.04,0.197 V 8.558 A 0.52,0.52 0 0 1 2.939,8.756 0.481,0.481 0 0 1 2.898,8.827 0.319,0.319 0 0 1 2.782,8.926 C 2.755,8.934 2.724,8.944 2.694,8.944 H 1.55 A 5.407,5.407 0 0 1 1.243,8.246 V 4.592 A 5.407,5.407 0 0 1 1.608,3.78 Z m 2.06,0.002 c 0.011,-0.002 0.021,0 0.034,0 h 7.338 a 5.407,5.407 0 0 1 0.693,2.635 5.407,5.407 0 0 1 -0.63,2.528 H 3.701 A 0.224,0.224 0 0 1 3.612,8.928 0.327,0.327 0 0 1 3.456,8.758 0.52,0.52 0 0 1 3.415,8.561 V 4.167 A 0.52,0.52 0 0 1 3.455,3.97 0.326,0.326 0 0 1 3.612,3.8 C 3.628,3.793 3.65,3.784 3.666,3.781 Z M 4.266,4.267 A 0.297,0.297 0 0 0 3.969,4.565 v 3.572 c 0,0.165 0.133,0.298 0.297,0.298 H 8.434 A 0.297,0.297 0 0 0 8.731,8.137 V 4.564 A 0.297,0.297 0 0 0 8.434,4.266 H 4.266 Z M 1.241,4.599 v 3.64 A 5.407,5.407 0 0 1 0.919,6.417 5.407,5.407 0 0 1 1.241,4.599 Z m 3.025,0.636 h 4.168 c 0.04,0 0.074,0.033 0.074,0.074 V 8.137 A 0.074,0.074 0 0 1 8.434,8.211 H 4.266 A 0.074,0.074 0 0 1 4.192,8.137 V 5.308 c 0,-0.04 0.033,-0.074 0.074,-0.074 z M 2.103,9.79 h 8.441 A 5.407,5.407 0 0 1 6.326,11.822 5.407,5.407 0 0 1 2.103,9.79 Z"
     id="path2"
     inkscape:connector-curvature="0"
     style="fill:#2c89a0" />
</svg>
